X:0954
M:2/4
L:1/8
Q:1/4=100
K:D
de|f2f2|e2e2|d2B2|B2A2|BcdB|A2D2|E2F2|E2D2||
P:Chos.
   D3 d|d3 e|defe|d2A2|B2e2|e3 d|efga|f2e2|z2
de|f2gf|e2fe|d2B2|B2A2|dcdB|A2D2|E2F2|E2D2|]

